X:5
T:Huntsmanâ€™s Chorus,The. JBs.005
S:Jas.Blackshaw MS, 1837, N.Shropshire
A:North Shropshire
Z:T. Weatherall 2006
M:2/4
L:1/16
Q:1/4=130
N:Iâ€™m not confident about the repeats.
R:Air
K:C
â€œcr in MS.â€G2|c4cdef|g4e2e2|d2g2d2g2|efed c2G2|!
c4cdef|g4e2e2|1edcd e2d2|c6:|2d2g2 b2a2|g6||!
|:â€cr in MS.â€d2|e4e2e2|c4c2c2|f4f2f2|d4d2d2|\
e4e2e2|c4c2c2|f4f2f2|d4z2G2|!
e4e2e2|f4e2e2|d4edcd|e4c2c2|e4e2e2|\
f4e2e2|!
edcd e2d2|c6G2|G2GG G2GG|G2GG G2GG::!
c4G2e2|c4G2e2|f2d2 f2d2|f2d2 f2d2|\
e2c2 e2g2|e2c2 e2g2|e2cc c2cc|c8:|

